dist/svg/point.svg

<?xml version="1.0" encoding="UTF-8" standalone="no"?>
<!-- Created with Inkscape (http://www.inkscape.org/) -->

<svg
   xmlns:dc="http://purl.org/dc/elements/1.1/"
   xmlns:cc="http://creativecommons.org/ns#"
   xmlns:rdf="http://www.w3.org/1999/02/22-rdf-syntax-ns#"
   xmlns:svg="http://www.w3.org/2000/svg"
   xmlns="http://www.w3.org/2000/svg"
   xmlns:sodipodi="http://sodipodi.sourceforge.net/DTD/sodipodi-0.dtd"
   xmlns:inkscape="http://www.inkscape.org/namespaces/inkscape"
   width="20"
   height="20"
   viewBox="0 0 20 20"
   id="svg19167"
   version="1.1"
   inkscape:version="0.91+devel+osxmenu r12911"
   sodipodi:docname="marker.svg">
  <defs
     id="defs19169" />
  <sodipodi:namedview
     id="base"
     pagecolor="#ffffff"
     bordercolor="#666666"
     borderopacity="1.0"
     inkscape:pageopacity="0.0"
     inkscape:pageshadow="2"
     inkscape:zoom="16"
     inkscape:cx="14.164253"
     inkscape:cy="8.88572"
     inkscape:document-units="px"
     inkscape:current-layer="layer1"
     showgrid="false"
     units="px"
     inkscape:window-width="1280"
     inkscape:window-height="751"
     inkscape:window-x="208"
     inkscape:window-y="190"
     inkscape:window-maximized="0"
     inkscape:object-nodes="true">
    <inkscape:grid
       type="xygrid"
       id="grid19715" />
  </sodipodi:namedview>
  <metadata
     id="metadata19172">
    <rdf:RDF>
      <cc:Work
         rdf:about="">
        <dc:format>image/svg+xml</dc:format>
        <dc:type
           rdf:resource="http://purl.org/dc/dcmitype/StillImage" />
        <dc:title />
      </cc:Work>
    </rdf:RDF>
  </metadata>
  <g
     inkscape:label="Layer 1"
     inkscape:groupmode="layer"
     id="layer1"
     transform="translate(0,-1032.3622)">
    <path
       style="color:#000000;clip-rule:nonzero;display:inline;overflow:visible;visibility:visible;opacity:1;isolation:auto;mix-blend-mode:normal;color-interpolation:sRGB;color-interpolation-filters:linearRGB;solid-color:#000000;solid-opacity:1;fill:#000000;fill-opacity:1;fill-rule:evenodd;stroke:none;stroke-width:2;stroke-linecap:round;stroke-linejoin:round;stroke-miterlimit:4;stroke-dasharray:none;stroke-dashoffset:0;stroke-opacity:1;marker:none;color-rendering:auto;image-rendering:auto;shape-rendering:auto;text-rendering:auto;enable-background:accumulate"
       d="m 36,1040.3622 c 6e-6,3.3093 -5.988612,10 -5.988612,10 0,0 -5.998776,-6.668 -6.011345,-9.9772 -0.01257,-3.3092 2.656576,-6.0039 5.965792,-6.0227 3.309189,-0.019 6.00884,2.6452 6.033992,5.9543"
       id="path12561"
       inkscape:connector-curvature="0"
       sodipodi:nodetypes="ccssc" />
    <path
       style="color:#000000;clip-rule:nonzero;display:inline;overflow:visible;visibility:visible;opacity:1;isolation:auto;mix-blend-mode:normal;color-interpolation:sRGB;color-interpolation-filters:linearRGB;solid-color:#000000;solid-opacity:1;fill:#ffffff;fill-opacity:1;fill-rule:evenodd;stroke:none;stroke-width:2;stroke-linecap:round;stroke-linejoin:round;stroke-miterlimit:4;stroke-dasharray:none;stroke-dashoffset:0;stroke-opacity:1;marker:none;color-rendering:auto;image-rendering:auto;shape-rendering:auto;text-rendering:auto;enable-background:accumulate"
       d="m 34.000115,1040.3622 c -5e-6,2.2062 -3.992523,7.0001 -3.992523,7.0001 0,0 -3.999291,-4.7787 -4.007679,-6.9849 -0.0084,-2.2062 1.771082,-4.0027 3.97731,-4.0153 2.20621,-0.013 4.006037,1.7635 4.022777,3.9697"
       id="path12563"
       inkscape:connector-curvature="0"
       sodipodi:nodetypes="cccsc" />
    <path
       style="color:#000000;clip-rule:nonzero;display:inline;overflow:visible;visibility:visible;opacity:1;isolation:auto;mix-blend-mode:normal;color-interpolation:sRGB;color-interpolation-filters:linearRGB;solid-color:#000000;solid-opacity:1;fill:#000000;fill-opacity:1;fill-rule:evenodd;stroke:none;stroke-width:2;stroke-linecap:round;stroke-linejoin:round;stroke-miterlimit:4;stroke-dasharray:none;stroke-dashoffset:0;stroke-opacity:1;marker:none;color-rendering:auto;image-rendering:auto;shape-rendering:auto;text-rendering:auto;enable-background:accumulate"
       d="M 9.9667969,1014.3622 C 6.6575809,1014.381 3.98743,1017.0764 4,1020.3856 c 0.012569,3.3092 6.011719,8.9766 6.011719,8.9766 0,0 5.988287,-5.6907 5.988281,-9 l 0,-0.045 c -0.02515,-3.3091 -2.724014,-5.9741 -6.0332031,-5.9551 z m 0.00977,2 c 2.2062061,-0.013 4.0066931,1.7626 4.0234331,3.9688 l 0,0.031 c -5e-6,2.2062 -3.992188,6 -3.992188,6 0,0 -3.999424,-3.7782 -4.007812,-5.9844 -0.0084,-2.2062 1.7703345,-4.003 3.9765625,-4.0156 z"
       id="path12568"
       inkscape:connector-curvature="0"
       sodipodi:nodetypes="cscsccccscsc" />
    <path
       style="opacity:1;fill:#000000;fill-opacity:1;stroke:none;stroke-width:2;stroke-linecap:butt;stroke-linejoin:bevel;stroke-miterlimit:4;stroke-dasharray:none;stroke-dashoffset:0;stroke-opacity:1;marker:none"
       d="M 10 2 C 6.686292 2 4 4.6863 4 8 C 4 11.3137 10 17 10 17 C 10 17 16 11.3137 16 8 C 16 4.6863 13.313708 2 10 2 z M 10 4 C 12.071068 4 13.75 5.6789 13.75 7.75 C 13.75 9.2053278 11.93111 11.644393 10.830078 13 L 9.1699219 13 C 8.0688903 11.644393 6.25 9.2053278 6.25 7.75 C 6.25 5.6789 7.928932 4 10 4 z "
       transform="translate(0,1032.3622)"
       id="path17305" />
  </g>
</svg>

<svg xmlns="http://www.w3.org/2000/svg" viewBox="0 0 20 20">
	<path d="m10 2c-3.3 0-6 2.7-6 6s6 9 6 9 6-5.7 6-9-2.7-6-6-6zm0 2c2.1 0 3.8 1.7 3.8 3.8 0 1.5-1.8 3.9-2.9 5.2h-1.7c-1.1-1.4-2.9-3.8-2.9-5.2-.1-2.1 1.6-3.8 3.7-3.8z"/>
</svg>
